<?xml version="1.0" encoding="UTF-8"?>
<map version="1.10" tiledversion="1.11.2" orientation="orthogonal" renderorder="right-down" width="60" height="16" tilewidth="16" tileheight="16" infinite="0" nextlayerid="10" nextobjectid="19">
 <editorsettings>
  <export target="park.json" format="json"/>
 </editorsettings>
 <tileset firstgid="1" name="ParkGnd" tilewidth="16" tileheight="16" tilecount="90" columns="18">
  <image source="../images/mist-forest-background-tiles.png" width="288" height="80"/>
 </tileset>
 <tileset firstgid="91" name="park_backgrounds" tilewidth="336" tileheight="224" tilecount="5" columns="0">
  <grid orientation="orthogonal" width="1" height="1"/>
  <tile id="0">
   <image source="../images/night-town-background-sky.png" width="96" height="224"/>
  </tile>
  <tile id="1">
   <image source="../images/mist-forest-background-tree.png" width="336" height="224"/>
  </tile>
  <tile id="2">
   <image source="../images/buildings.png" width="272" height="150"/>
  </tile>
  <tile id="3">
   <image source="../images/far-buildings.png" width="213" height="142"/>
  </tile>
  <tile id="4">
   <image source="../images/skill-foreground.png" width="272" height="104"/>
  </tile>
 </tileset>
 <tileset firstgid="96" name="mech" tilewidth="96" tileheight="80" tilecount="10" columns="10">
  <image source="../images/mech-unit.png" width="960" height="80"/>
  <tile id="1">
   <animation>
    <frame tileid="0" duration="100"/>
    <frame tileid="1" duration="100"/>
    <frame tileid="2" duration="100"/>
    <frame tileid="3" duration="100"/>
    <frame tileid="4" duration="100"/>
    <frame tileid="5" duration="100"/>
    <frame tileid="6" duration="100"/>
    <frame tileid="7" duration="100"/>
    <frame tileid="8" duration="100"/>
    <frame tileid="9" duration="100"/>
   </animation>
  </tile>
 </tileset>
 <tileset firstgid="106" name="treant" tilewidth="80" tileheight="84" tilecount="4" columns="1">
  <image source="../images/Treant.png" width="80" height="336"/>
  <tile id="3">
   <animation>
    <frame tileid="0" duration="100"/>
    <frame tileid="1" duration="100"/>
    <frame tileid="2" duration="100"/>
    <frame tileid="3" duration="100"/>
   </animation>
  </tile>
 </tileset>
 <imagelayer id="2" name="ParkBG" parallaxx="0.8" repeatx="1">
  <image source="../images/night-town-background-sky.png" width="96" height="224"/>
  <properties>
   <property name="parallaxx" type="float" value="0.8"/>
   <property name="parallaxy" type="float" value="1"/>
  </properties>
 </imagelayer>
 <imagelayer id="5" name="ParkBuildingsBG" offsetx="0" offsety="80" parallaxx="0.9" repeatx="1">
  <image source="../images/buildings.png" width="272" height="150"/>
  <properties>
   <property name="parallaxx" type="float" value="0.9"/>
   <property name="parallaxy" type="float" value="1"/>
  </properties>
 </imagelayer>
 <group id="8" name="foreground">
  <objectgroup id="3" name="buildings">
   <object id="1" gid="95" x="8.5" y="227.5" width="272" height="104"/>
   <object id="2" gid="95" x="487.5" y="227.5" width="272" height="104"/>
  </objectgroup>
  <objectgroup id="9" name="tree">
   <object id="17" gid="92" x="0" y="224" width="336" height="224"/>
  </objectgroup>
 </group>
 <layer id="1" name="ground" width="60" height="16">
  <data encoding="csv">
0,0,0,0,0,0,0,0,0,0,0,0,0,0,0,0,0,0,0,0,0,0,0,0,0,0,0,0,0,0,0,0,0,0,0,0,0,0,0,0,0,0,0,0,0,0,0,0,0,0,0,0,0,0,0,0,0,0,0,0,
0,0,0,0,0,0,0,0,0,0,0,0,0,0,0,0,0,0,0,0,0,0,0,0,0,0,0,0,0,0,0,0,0,0,0,0,0,0,0,0,0,0,0,0,0,0,0,0,0,0,0,0,0,0,0,0,0,0,0,0,
0,0,0,0,0,0,0,0,0,0,0,0,0,0,0,0,0,0,0,0,0,0,0,0,0,0,0,0,0,0,0,0,0,0,0,0,0,0,0,0,0,0,0,0,0,0,0,0,0,0,0,0,0,0,0,0,0,0,13,14,
0,0,0,0,0,0,0,0,0,0,0,0,0,0,0,0,0,0,0,0,0,0,0,0,0,0,0,0,0,0,0,0,0,0,0,0,0,0,0,0,0,0,0,0,0,0,0,0,0,0,0,0,0,0,0,0,0,0,31,32,
0,0,0,0,0,0,0,0,0,0,0,0,0,0,0,0,0,0,0,0,0,0,0,0,0,0,0,0,0,0,0,0,0,0,0,0,0,0,0,0,0,0,0,0,0,0,0,0,0,0,0,0,0,0,0,0,0,0,49,50,
17,18,0,0,0,0,0,0,0,0,0,0,0,0,0,0,0,0,0,0,0,0,0,0,0,0,0,0,0,0,0,0,0,0,0,0,0,0,0,0,0,0,0,0,0,0,0,0,0,0,0,0,0,0,0,0,0,0,67,68,
35,36,0,0,0,0,0,0,0,0,0,0,0,0,0,0,0,0,0,0,0,0,0,0,0,0,0,0,0,0,0,0,0,0,0,0,0,0,0,0,0,0,0,0,0,0,0,0,0,0,0,0,0,0,0,0,0,0,1073741891,1073741892,
53,54,0,0,0,0,0,0,0,0,0,0,0,0,0,0,0,0,0,0,0,0,0,0,0,0,0,0,0,0,0,0,0,0,0,0,0,0,0,0,0,0,0,0,0,0,0,0,0,0,0,0,0,0,0,0,0,0,1073741873,1073741874,
71,72,0,0,0,0,0,0,0,0,0,0,0,0,0,0,0,0,0,0,0,0,0,0,0,0,0,0,0,0,0,0,0,0,0,0,0,0,0,0,0,0,0,0,0,0,0,0,0,0,0,0,0,0,0,0,0,0,1073741855,1073741856,
53,54,0,0,0,0,0,0,0,0,0,0,0,0,0,0,0,0,0,0,0,0,0,0,13,14,15,16,17,18,0,0,0,0,0,0,0,0,0,0,0,0,0,0,0,0,0,0,0,0,0,0,0,0,0,0,0,0,1073741837,1073741838,
71,72,0,0,0,0,0,0,0,0,0,0,0,0,0,0,0,0,0,0,0,0,0,0,31,32,33,34,35,36,0,0,0,0,0,0,0,0,0,0,0,0,0,0,0,0,0,0,0,0,0,0,0,0,0,0,0,0,0,0,
71,72,0,0,0,0,0,0,0,0,0,0,0,0,0,0,0,0,0,0,0,0,0,0,0,0,0,0,0,0,0,0,0,0,0,0,0,0,0,0,0,0,0,0,0,0,0,0,0,0,0,0,0,0,0,0,0,0,0,0,
53,54,0,0,0,0,0,0,0,0,0,0,0,0,0,0,0,0,0,0,0,0,0,0,0,0,0,0,0,0,0,0,0,0,0,0,0,0,0,0,0,0,0,0,0,0,0,0,0,0,0,0,0,0,0,0,0,0,0,0,
71,72,0,23,24,0,0,27,28,0,0,0,15,16,0,0,0,0,23,24,25,26,27,28,15,16,0,0,0,14,0,0,27,28,0,0,0,0,0,0,0,14,23,24,0,0,0,15,16,0,0,23,24,0,0,0,14,0,0,0,
40,43,44,41,42,44,44,45,46,43,44,43,33,34,44,43,43,44,41,42,43,44,45,46,33,34,43,44,44,32,43,44,45,46,44,43,44,44,43,43,44,32,41,42,44,43,43,33,34,43,43,41,42,44,43,43,32,43,43,44,
58,58,58,58,58,58,58,58,58,58,58,58,58,58,58,58,58,58,58,58,58,58,58,58,58,58,58,58,58,58,58,58,58,58,58,58,58,58,58,58,58,58,58,58,58,58,58,58,58,58,58,58,58,58,58,58,58,58,58,58
</data>
 </layer>
 <objectgroup id="7" name="characters">
  <object id="7" gid="2147483745" x="768" y="224" width="96" height="80"/>
  <object id="18" gid="2147483757" x="64" y="224" width="62" height="65.1"/>
 </objectgroup>
</map>
